!!!!SEGMENT: pl-kk--kk-i-7--069_pekiel-bartlomiej--o-adoranda-trinitas.krn
!!!cenid: 16xx:908
!!!COM: Pękiel, Bartłomiej
!!!COM-rismid: pe30105642
!!!CDT: <1633-~1670
!!!CNT: Polish
!!!OTL: O adoranda trinitas
!!!PDT: 1663
!!!AGN: Sacred
!!!SMS-siglum: PL-Kk
!!!SMS-shelfmark: Kk.I.7
!!!SMS-shelfwork: 069 W
!!!SMS-variant:
!!!SMS-altvar:
!!!NIFC-rismid: 300258146
!!!URL-scan: http://repozytorium.nifc.pl/skany/pl-kk-nut--i-7
!!!ONB-nifc: UWAGA: C (skan 0063, s.118-119), A (0149-0150, s.119-120), T(0226, s.114-115), B(0313, s.112-113). Następny utwór: Assumpta est Maria
!!!AIN: 1 alto 1 empty 1 tenor 1 vox
!!!key:
**kern	**text	**kern	**text	**kern	**text	**kern	**text
*part4	*part4	*part3	*part3	*part2	*part2	*part1	*part1
*staff4	*staff4	*staff3	*staff3	*staff2	*staff2	*staff1	*staff1
*Iempty	*	*Itenor	*	*Ialto	*	*Ivox	*
*I"[Baſso]	*	*I"[Tenore]	*	*I"[Alto]	*	*I"[Canto]	*
*I'B	*	*I'T	*	*I'A	*	*I'S	*
*clefF4	*	*clefC4	*	*clefC4	*	*clefC3	*
*k[b-]	*	*k[b-]	*	*k[b-]	*	*k[b-]	*
*g:dor	*	*g:dor	*	*g:dor	*	*g:dor	*
*M2/1	*	*M2/1	*	*M2/1	*	*M2/1	*
*met(C|)	*	*met(C|)	*	*met(C|)	*	*met(C|)	*
=1-	=1-	=1-	=1-	=1-	=1-	=1-	=1-
!	!	!LO:TX:t=P:problem=kreska pseudotaktowa	!	!	!	!	!
!LO:TX:a:t=P:problem=przed kluczem inicjał O	!	!LO:TX:a:t=P:problem=przed kluczem inicjał O	!	!LO:TX:a:t=P:problem=przed kluczem inicjał O	!	!	!
*	*	*	*	*lig	*	*	*
!	!	!	!	!	!	!LO:TX:t=P:problem=kreska pseudotaktowa	!
!	!	!	!	!	!	!LO:TX:a:t=P:problem=przed kluczem inicjał O	!
00r	.	1r	.	1G/	O	0r	.
*	*	*lig	*	*col	*	*	*
.	.	1D/	O	2.d\	.	.	.
*	*	*	*	*Xlig	*	*	*
!	!	!	!	!LO:TX:t=P:problem=kreska pseudotaktowa	!	!	!
.	.	.	.	4c\	.	.	.
*	*	*	*	*Xcol	*	*	*
=2-	=2-	=2-	=2-	=2-	=2-	=2-	=2-
!	!	!LO:SIC:v:s=1G	!	!	!	!	!
*	*	*	*	*	*	*lig	*
.	.	1A\	.	(4B-\	A-	1G/	O
.	.	.	.	4A\)	.	.	.
.	.	.	.	(4B-\	-do-	.	.
.	.	.	.	4G/)	.	.	.
!	!	!	!	!LO:TX:t=P:problem=kreska pseudotaktowa	!	!	!
*	*	*Xlig	*	*	*	*	*
!	!	!	!	!	!	!LO:TX:t=P:problem=kreska pseudotaktowa	!
.	.	2F/	A-	2A/	-ran-	1d\	.
.	.	2D/	-do-	2F/	-da	.	.
!	!	!LO:TX:t=P:problem=kreska pseudotaktowa	!	!LO:TX:t=P:problem=kreska pseudotaktowa	!	!	!
*	*	*	*	*	*	*Xlig	*
=3-	=3-	=3-	=3-	=3-	=3-	=3-	=3-
!LO:TX:t=P:problem=kreska pseudotaktowa	!	!	!	!	!	!	!
0r	.	2E/	-ran-	2.G/	Tri-	2c/	A-
!	!	!	!	!	!	!LO:TX:t=P:problem=kreska pseudotaktowa	!
.	.	2G/	-da	.	.	2B-/	-do-
.	.	.	.	4G/	-ni-	.	.
.	.	4F#X/	a-	0D/	-tas	2A/	-ran-
.	.	4D/	-do-	.	.	.	.
!	!	!LO:TX:t=P:problem=all\right&colon; global	!	!	!	!	!
.	.	4.B-\	-ran-	.	.	4G/	-da
*	*	*	*	*	*	*2\right	*
!	!	!	!	!	!	!LO:TX:t=P:problem=all\right&colon; global	!
.	.	.	.	.	.	2g\	Tri-
!	!	!LO:TX:t=P:problem=kreska pseudotaktowa	!	!	!	!	!
.	.	8B-\	-da	.	.	.	.
=4-	=4-	=4-	=4-	=4-	=4-	=4-	=4-
*lig	*	*	*	*	*	*	*
!	!	!	!	!LO:TX:t=P:problem=kreska pseudotaktowa	!	!	!
1D\	O	2.A/	Tri-	.	.	.	.
!	!	!	!	!	!	!LO:TX:t=P:problem=krzyżyk przesunięty za nutę	!
!	!	!	!	!	!	!LO:TX:t=P:problem=♯above	!
.	.	.	.	.	.	8f#X\L	.
.	.	.	.	.	.	8e\J	.
.	.	.	.	.	.	4.f#\	.
.	.	4A/	-ni-	.	.	.	.
!	!	!	!	!	!	!LO:TX:t=P:problem=kreska pseudotaktowa	!
.	.	.	.	.	.	8f#\	-ni-
*	*	*2\right	*	*	*	*	*
1G\	.	2B-\	-tas	2r	.	1g\	-tas
*	*	*	*ij	*	*	*	*
.	.	2B-\	Tri-	1G/	O	.	.
!	!	!LO:TX:t=P:problem=kreska pseudotaktowa	!	!	!	!	!
*Xlig	*	*	*	*	*	*	*
=5-	=5-	=5-	=5-	=5-	=5-	=5-	=5-
!LO:TX:t=P:problem=all\right&colon; global	!	!	!	!	!	!	!
*2\right	*	*	*	*	*	*lig	*
2G\	A-	2B-\	-ni-	.	.	1d\	O
2F\	.	2A/	.	1d\	A-	.	.
!	!	!	!	!	!	!LO:TX:t=P:problem=kreska pseudotaktowa	!
1E-X\	-do-	2G/	-tas	.	.	1g\	.
*	*	*	*Xij	*2\right	*	*	*
.	.	2G/	a-	2c\	-do-	.	.
!	!	!LO:TX:t=P:problem=kreska pseudotaktowa	!	!LO:TX:t=P:problem=kreska pseudotaktowa	!	!	!
*	*	*	*	*	*	*Xlig	*
=6-	=6-	=6-	=6-	=6-	=6-	=6-	=6-
2D/	-ran-	4A/	-do-	4d\	-ran-	2f\	A-
.	.	4F/	.	4A\	-da	.	.
!LO:TX:t=P:problem=kreska pseudotaktowa	!	!	!	!	!	!	!
2C/	-da	1G/	-ran-	4.c\	A-	2e-X\	-do-
!	!	!	!	!LO:TX:t=P:problem=kreska pseudotaktowa	!	!	!
.	.	.	.	8c\	-do-	.	.
!	!	!	!	!LO:N:acc=#	!	!	!
1.GG/	Tri-	.	.	2Bn\	-ran-	2d\	-ran-
!	!	!LO:TX:t=P:problem=kreska pseudotaktowa	!	!LO:TX:t=P:problem=kreska pseudotaktowa	!	!	!
.	.	2G/	-da	2e-X\	-da	4c/	-da
.	.	.	.	.	.	2c/	Tri-
=7-	=7-	=7-	=7-	=7-	=7-	=7-	=7-
.	.	2.G/	Tri-	2.d\	Tri-	.	.
!	!	!	!	!	!	!LO:TX:t=P:♯below:problem	!
!	!	!	!	!	!	!LO:N:acc=#	!
.	.	.	.	.	.	8Bn/L	.
.	.	.	.	.	.	8A/J	.
2GG/	-ni-	.	.	.	.	4.B/	.
!	!	!	!	!LO:TX:t=P:problem=kreska pseudotaktowa	!	!	!
.	.	4G/	-ni-	4d\	-ni-	.	.
!	!	!	!	!	!	!LO:TX:t=P:problem=kreska pseudotaktowa	!
.	.	.	.	.	.	8B/	-ni-
2C/	-tas	2G/	-tas	4e-X\	-tas	2c/	-tas
.	.	.	.	4c\	O	.	.
!LO:TX:t=P:problem=kreska pseudotaktowa	!	!LO:TX:t=P:problem=kreska pseudotaktowa	!	!	!	!	!
2r	.	2r	.	4G/	Ve-	2g\	O
!	!	!	!	!LO:TX:t=P:problem=kreska pseudotaktowa	!	!	!
.	.	.	.	4A/	.	.	.
=8-	=8-	=8-	=8-	=8-	=8-	=8-	=8-
!LO:TX:t=P:problem=kreska pseudotaktowa	!	!	!	!	!	!	!
0r	.	2r	.	4B-\	-ne-	4d\	Ve-
.	.	.	.	4c\	.	4e\	-ne-
*	*	*custos:c	*	*custos:A	*	*	*
!	!	!LO:TX:t=P:problem=kreska pseudotaktowa	!	!LO:TX:t=P:problem=kreska pseudotaktowa	!	!	!
.	.	2f\	O	2d\	-ran-	8f\L	-ran-
.	.	.	.	.	.	8e\	.
.	.	.	.	.	.	8f\	.
*	*	*	*	*	*	*custos:a	*
!	!	!	!	!	!	!LO:TX:t=P:problem=kreska pseudotaktowa	!
.	.	.	.	.	.	8g\J	.
!	!	!LO:PB:g=original	!	!LO:LB:g=original	!	!LO:PB:g=original	!
.	.	4c\	Ve-	4A\	.	2a\	.
.	.	4d\	-ne-	4B-\	.	.	.
.	.	4e\	-ran-	4c\	.	2.g\	.
.	.	8d\L	.	8B-\L	.	.	.
!	!	!LO:TX:t=P:problem=kreska pseudotaktowa	!	!LO:TX:t=P:problem=kreska pseudotaktowa	!	!	!
.	.	8c\J	.	8A\J	.	.	.
=9-	=9-	=9-	=9-	=9-	=9-	=9-	=9-
*lig	*	*	*	*	*	*	*
1GG/	O	4.d\	.	2B-\	.	.	.
.	.	.	.	.	.	8f\L	.
.	.	8c\	.	.	.	8e\J	.
!	!	!LO:TX:t=P:problem=kreska pseudotaktowa	!	!LO:TX:t=P::problem=kreska pseudotaktowa&colon;między nutą a kropką	!	!LO:TX:t=P:problem=kreska pseudotaktowa	!
.	.	2B-\	.	2B-\	-da	2.d\	.
!LO:TX:t=P:problem=kreska pseudotaktowa	!	!	!	!	!	!	!
1D\	.	2A/	-da	4F/	O	.	.
.	.	.	.	4G/	.	4e\	.
.	.	2r	.	4A/	.	4f\	.
.	.	.	.	4B-\	.	8e\L	.
.	.	.	.	.	.	8d\J	.
!	!	!LO:TX:t=P:problem=kreska pseudotaktowa	!	!LO:TX:t=P:problem=kreska pseudotaktowa	!	!	!
*Xlig	*	*	*	*	*	*	*
=10-	=10-	=10-	=10-	=10-	=10-	=10-	=10-
*	*	*lig	*	*	*	*	*
1C/	Ve-	1G/	O	4c\	.	1e-X\	.
.	.	.	.	8B-\L	.	.	.
.	.	.	.	8A\J	.	.	.
.	.	.	.	4G/	.	.	.
!	!	!	!	!LO:TX:t=P:problem=kreska pseudotaktowa	!	!	!
.	.	.	.	4A/	.	.	.
1BB-/	-ne-	1d\	.	4B-\	Ve-	2d\	-da
.	.	.	.	4F/	-ne-	.	.
.	.	.	.	4.G/	-ran-	2d\	O
.	.	.	.	8G/	-da	.	.
!	!	!	!	!LO:TX:t=P:problem=kreska pseudotaktowa	!	!LO:TX:t=P:problem=kreska pseudotaktowa	!
*	*	*Xlig	*	*	*	*	*
=11-	=11-	=11-	=11-	=11-	=11-	=11-	=11-
1AA/	-ran-	1c\	Ve-	2.A/	Ve-	4a\	Ve-
.	.	.	.	.	.	8g\L	.
.	.	.	.	.	.	8f\J	.
.	.	.	.	.	.	4e\	.
!	!	!	!	!LO:TX:t=P:problem=kreska pseudotaktowa	!	!LO:TX:t=P:problem=kreska pseudotaktowa	!
.	.	.	.	4A/	-ne-	4f\	-ne-
!LO:TX:t=P:problem=kreska pseudotaktowa	!	!LO:TX:t=P:problem=kreska pseudotaktowa	!	!	!	!	!
1GG/	-da	1B-\	-ne-	4B-\	-ran-	4g\	-ran-
.	.	.	.	4A/	.	4f\	.
.	.	.	.	1G/	-da	4e\	.
!	!	!	!	!	!	!LO:TX:t=P:problem=kreska pseudotaktowa	!
.	.	.	.	.	.	4d\	.
=12-	=12-	=12-	=12-	=12-	=12-	=12-	=12-
1.AA/	V-	2.A/	-ran-	.	.	4c#X/	.
.	.	.	.	.	.	4A/	-da
!	!	!	!	!LO:TX:t=P:problem=kreska pseudotaktowa	!	!	!
.	.	.	.	2F/	.	2.d\	Ve-
.	.	4A/	-da	.	.	.	.
.	.	2.A/	Tri-	2.E/	V-	.	.
!	!	!	!	!	!	!LO:TX:t=P:♯below:problem	!
.	.	.	.	.	.	8c#/L	.
!	!	!	!	!	!	!LO:N:acc=#	!
.	.	.	.	.	.	8Bn/J	.
!LO:TX:t=P:problem=kreska pseudotaktowa	!	!	!	!	!	!	!
2AA/	-ni-	.	.	.	.	4.c#/	.
!	!	!LO:TX:t=P:problem=kreska pseudotaktowa	!	!	!	!	!
.	.	4A/	-ni-	4E/	-ni-	.	.
!	!	!	!	!	!	!LO:TX:t=P:problem=kreska pseudotaktowa	!
.	.	.	.	.	.	8c#/	-ni-
=13-	=13-	=13-	=13-	=13-	=13-	=13-	=13-
2D/	-tas,	2A/	-tas,	2F#X,/	-tas	2d,\	-tas
1D\	Per	1A\	Per	1F#/	Per	1d\	Per
!LO:TX:t=P:problem=kreska pseudotaktowa	!	!LO:TX:t=P:problem=kreska pseudotaktowa	!	!LO:TX:t=P:problem=kreska pseudotaktowa	!	!	!
2D/	te	2A/	Te	2F#/	Te	2d\	Te
=14-	=14-	=14-	=14-	=14-	=14-	=14-	=14-
*custos:G	*	*	*	*	*	*	*
!LO:TX:t=P:problem=kreska pseudotaktowa	!	!	!	!	!	!	!
!	!	!	!	!	!	!LO:TX:t=P:problem=kreska pseudotaktowa	!
1G\	ſu-	1B-\	ſu-	1G/	ſu-	1d\	ſu-
!LO:LB:g=original	!	!	!	!	!	!	!
2G\	-mus	2B-\	-mus	2G/	-mus	2d\	-mus
!LO:TX:t=P:problem=♯above	!	!LO:TX:t=P:problem=kreska pseudotaktowa	!	!	!	!LO:TX:t=P:problem=kreska pseudotaktowa	!
2F#X\	Cre-	2d\	Cre-	4A/	cre-	2d\	Cre-
.	.	.	.	2A/	-a-	.	.
=15-	=15-	=15-	=15-	=15-	=15-	=15-	=15-
!LO:TX:t=P:problem=kreska pseudotaktowa	!	!	!	!	!	!	!
1G\	-a-	1B-\	-a-	.	.	1d\	-a-
.	.	.	.	8G/L	.	.	.
*	*	*	*	*custos:G	*	*	*
.	.	.	.	8F/J	.	.	.
!	!	!	!	!LO:LB:g=original	!	!	!
.	.	.	.	2G/	.	.	.
!	!	!	!	!LO:TX:t=P:problem=kreska pseudotaktowa	!	!LO:TX:t=P:problem=kreska pseudotaktowa	!
2D/	-ti	2A/	-ti	1F#X/	-ti	1d\	-ti
2D/	Ve-	1d\	Ve-	.	.	.	.
=16-	=16-	=16-	=16-	=16-	=16-	=16-	=16-
2.E\	-ra	.	.	1r	.	0r	.
.	.	1c\	-ra	.	.	.	.
!LO:TX:t=P:problem=kreska pseudotaktowa	!	!	!	!	!	!	!
4F#X\	ae-	.	.	.	.	.	.
4G\	-ter-	.	.	2r	.	.	.
4D/	.	.	.	.	.	.	.
!	!	!LO:TX:t=P:problem=kreska pseudotaktowa	!	!	!	!	!
1G\	.	2B-\	(ae)-	1d\	Per	.	.
=17-	=17-	=17-	=17-	=17-	=17-	=17-	=17-
*	*	*	*	*	*	*custos:d	*
!	!	!	!	!	!	!LO:TX:t=P:problem=kreska pseudotaktowa	!
.	.	2.A/	-ter-	.	.	1r	.
!LO:TX:t=P:problem=kreska pseudotaktowa	!	!	!	!	!	!	!
2F#X\	-ni-	.	.	2d\	te	.	.
*	*	*custos:G	*	*	*	*	*
!	!	!LO:TX:t=P:problem=kreska pseudotaktowa	!	!	!	!	!
.	.	4A/	-ni-	.	.	.	.
!	!	!LO:LB:g=original	!	!	!	!LO:LB:g=original	!
2G,\	-tas	2G,/	-tas,	4d\	ſu-	2r	.
.	.	.	.	4c\	.	.	.
1G\	Per	1G/	Per	4B-\	.	1d\	Per
.	.	.	.	4A/	.	.	.
=18-	=18-	=18-	=18-	=18-	=18-	=18-	=18-
.	.	.	.	2B-\	-mus	.	.
!LO:TX:t=P:problem=kreska pseudotaktowa	!	!LO:TX:t=P:problem=kreska pseudotaktowa	!	!	!	!LO:TX:t=P:problem=kreska pseudotaktowa	!
2G\	te	2B-\	te	2G/	re-	2d\	te
!	!	!	!	!LO:TX:t=P:problem=kreska pseudotaktowa	!	!	!
1E-X\	.	1B-\	ſu-	1G/	-dem-	1e-X\	ſu-
=19-	=19-	=19-	=19-	=19-	=19-	=19-	=19-
2C/	ſu-	2c\	-mus	0G/	.	2e-X\	-mus
!LO:TX:t=P:problem=kreska pseudotaktowa	!	!	!	!	!	!	!
!LO:N:acc=#	!	!	!	!	!	!LO:TX:t=P:problem=kreska pseudotaktowa	!
2BBn/	-mus	4c\	re-	.	.	2d\	re-
.	.	2d\	-dem-	.	.	.	.
1C/	re-	.	.	.	.	1e-X\	-dem-
.	.	8c\L	.	.	.	.	.
.	.	8B-\J	.	.	.	.	.
!	!	!LO:TX:t=P:problem=kreska pseudotaktowa	!	!	!	!	!
.	.	2c\	.	.	.	.	.
=20-	=20-	=20-	=20-	=20-	=20-	=20-	=20-
!	!	!	!	!LO:TX:t=P:problem=kreska pseudotaktowa	!	!LO:TX:t=P:problem=kreska pseudotaktowa	!
2GG/	-dem-	2B-\	-pti	1G/	-pti	1d\	-pti
1G\	-pti	1B-\	Sum-	.	.	.	.
.	.	.	.	1.d\	Sum-	1r	.
4F\	ſum-	4A/	.	.	.	.	.
!LO:TX:t=P:problem=kreska pseudotaktowa	!	!LO:TX:t=P:problem=kreska pseudotaktowa	!	!	!	!	!
4E\	.	4G/	.	.	.	.	.
=21-	=21-	=21-	=21-	=21-	=21-	=21-	=21-
!	!	!LO:TX:t=P:problem=kreska pseudotaktowa	!	!	!	!	!
1F\	.	1A\	-ma	.	.	1f\	Sum-
.	.	.	.	4c\	.	.	.
.	.	.	.	4B-\	.	.	.
2F\	-ma	2A/	tu	1.c\	.	(4c\	-ma
.	.	.	.	.	.	4d\)	.
!LO:TX:t=P:problem=kreska pseudotaktowa	!	!LO:TX:t=P:problem=kreska pseudotaktowa	!	!	!	!	!
2E-X\	tu	2G/	.	.	.	(4e-X\	Tu
!	!	!	!	!	!	!LO:TX:t=P:problem=kreska pseudotaktowa	!
.	.	.	.	.	.	4c/)	.
=22-	=22-	=22-	=22-	=22-	=22-	=22-	=22-
1.D\	Cha-	2F#X/	Cha-	.	.	1.d\	Cha-
.	.	1G/	.	4B-\	-ma	.	.
!	!	!	!	!LO:TX:t=P:problem=kreska pseudotaktowa	!	!	!
.	.	.	.	4B-\	Tu	.	.
.	.	.	.	2.A/	Cha-	.	.
2D/	-ri-	2F#/	-ri-	.	.	2d\	-ri-
.	.	.	.	4A/	-ri-	.	.
=23-	=23-	=23-	=23-	=23-	=23-	=23-	=23-
*custos:G	*	*	*	*	*	*	*
!LO:TX:t=P:problem=kreska pseudotaktowa	!	!	!	!LO:TX:t=P:problem=kreska pseudotaktowa	!	!	!
!	!	!	!	!LO:N:acc=#	!	!LO:TX:t=P:problem=kreska pseudotaktowa	!
1GG/	-tas	1G/	-tas	1Bn\	-tas.	1d\	-tas.
!LO:LB:g=original	!	!	!	!	!	!	!
=24-	=24-	=24-	=24-	=24-	=24-	=24-	=24-
*M3/1	*	*M3/1	*	*M3/1	*	*M3/1	*
1.G\	Po-	1.G/	Po-	1.B-\	Po-	1.d\	Po-
2G\	-pu-	2G/	-pu-	2B-\	-pu-	2d\	-pu-
!LO:TX:t=P:problem=kreska pseudotaktowa	!	!	!	!	!	!	!
!LO:TX:t=P:problem=♯above	!	!LO:TX:t=P:problem=kreska pseudotaktowa	!	!LO:TX:t=P:problem=kreska pseudotaktowa	!	!LO:TX:t=P:problem=kreska pseudotaktowa	!
1F#X\	-lum	1A\	-lum	1A\	-lum	1d\	-lum
=25-	=25-	=25-	=25-	=25-	=25-	=25-	=25-
0G\	Cun-	0B-\	cun-	0G/	cun-	0d\	cun-
!LO:TX:t=P:problem=kreska pseudotaktowa	!	!LO:TX:t=P:problem=kreska pseudotaktowa	!	!LO:TX:t=P:problem=kreska pseudotaktowa	!	!LO:TX:t=P:problem=kreska pseudotaktowa	!
1G\	-ctum	1B-\	-ctum	1G/	-ctum	1d\	-ct(um)
=26-	=26-	=26-	=26-	=26-	=26-	=26-	=26-
1E-X\	tu	1B-\	tu	1G/	tu	1e-X\	tu
1.F\	pro-	1.B-\	pro-	1.F/	pro-	1.c\	pro-
*	*	*	*	*custos:F	*	*	*
!	!	!	!	!LO:TX:t=P:problem=kreska pseudotaktowa	!	!	!
!LO:TX:t=P:problem=kreska pseudotaktowa	!	!LO:TX:t=P:problem=kreska pseudotaktowa	!	!	!	!LO:TX:t=P:problem=kreska pseudotaktowa	!
2F\	-te-	2A/	-te-	2F/	-te-	2c/	-te-
!	!	!	!	!LO:LB:g=original	!	!	!
=27-	=27-	=27-	=27-	=27-	=27-	=27-	=27-
*	*	*custos:d	*	*	*	*	*
!	!	!LO:TX:t=P:problem=kreska pseudotaktowa	!	!	!	!	!
!LO:TX:t=P:problem=kreska pseudotaktowa	!	!	!	!LO:TX:t=P:problem=kreska pseudotaktowa	!	!LO:TX:t=P:problem=kreska pseudotaktowa	!
0.BB-/	-ge	0.B-\	-ge	0.F/	-ge	0.d\	-ge
!	!	!LO:LB:g=original	!	!	!	!	!
=28-	=28-	=28-	=28-	=28-	=28-	=28-	=28-
0B-\	Sal-	0d\	Sal-	1r	.	0f\	Sal-
.	.	.	.	1B-\	Sal-	.	.
*	*	*	*	*	*	*custos:e	*
!	!	!	!	!	!	!LO:TX:t=P:problem=kreska pseudotaktowa	!
!LO:TX:t=P:problem=kreska pseudotaktowa	!	!LO:TX:t=P:problem=kreska pseudotaktowa	!	!LO:TX:t=P:problem=kreska pseudotaktowa	!	!	!
1G\	-ua	1d\	-ua	1B-\	-ua,	1g\	-ua
!	!	!	!	!	!	!LO:LB:g=original	!
=29-	=29-	=29-	=29-	=29-	=29-	=29-	=29-
1.A\	li-	1.c#X\	li-	1.A\	li-	1.e\	li-
2A\	-be-	2c#\	-be-	2A/	-be-	2e\	-be-
!LO:TX:t=P:problem=kreska pseudotaktowa	!	!LO:TX:t=P:problem=kreska pseudotaktowa	!	!LO:TX:t=P:problem=kreska pseudotaktowa	!	!LO:TX:t=P:problem=kreska pseudotaktowa	!
1A\	-ra	1c#\	-ra	1A\	-ra,	1e\	-ra
=30-	=30-	=30-	=30-	=30-	=30-	=30-	=30-
(2D\	e-	1.d\	e-	1.A\	e-	1.f\	e-
2E\)	.	.	.	.	.	.	.
(2F\	-ri-	.	.	.	.	.	.
2G\)	.	2d\	-ri-	2A/	-ri-	2f\	-ri-
!LO:TX:t=P:problem=kreska pseudotaktowa	!	!LO:TX:t=P:problem=kreska pseudotaktowa	!	!LO:TX:t=P:problem=kreska pseudotaktowa	!	!LO:TX:t=P:problem=kreska pseudotaktowa	!
1A\	-pe	1c#X\	-pe	1A\	-pe,	1e\	-pe
=31-	=31-	=31-	=31-	=31-	=31-	=31-	=31-
1F\	et	1d\	et	1A\	et	1f\	et
1G\	e-	1d\	e-	1B-\	e-	1e\	e-
!LO:TX:t=P:problem=kreska pseudotaktowa	!	!LO:TX:t=P:problem=kreska pseudotaktowa	!	!	!	!	!
1A\	-mun-	1c#X\	mun-	1A\	-mun-	1e\	-mun-
=32-	=32-	=32-	=32-	=32-	=32-	=32-	=32-
*custos:G	*	*	*	*	*	*	*
0.D\	-da	0.d\	-da	0.A\	-da	0.f\	-da
!LO:PB:g=original	!	!	!	!	!	!	!
=33-	=33-	=33-	=33-	=33-	=33-	=33-	=33-
*M2/1	*	*M2/1	*	*M2/1	*	*M2/1	*
*met(C|)	*	*met(C|)	*	*met(C|)	*	*met(C|)	*
!LO:TX:t=P:problem=kreska pseudotaktowa	!	!	!	!LO:TX:t=P:problem=kreska pseudotaktowa	!	!	!
1r	.	4r	.	1r	.	4r	.
.	.	4d\	Te	.	.	4d\	Te
.	.	4c\	a-	.	.	4e\	A-
!	!	!LO:TX:t=P:problem=kreska pseudotaktowa	!	!	!	!LO:TX:t=P:problem=kreska pseudotaktowa	!
.	.	4A/	-do-	.	.	4f#X\	-do-
4r	.	2B-\	-ra-	4r	.	8g\L	-ra-
.	.	.	.	.	.	8fny\	.
4G\	Te	.	.	4G/	Te	8d\	.
.	.	.	.	.	.	8e\J	.
!	!	!	!	!	!	!LO:TX:t=P:problem=kreska pseudotaktowa	!
4F\	a-	4A/	-mus	4A/	A-	2f\	.
!LO:TX:t=P:problem=kreska pseudotaktowa	!	!LO:TX:t=P:problem=kreska pseudotaktowa	!	!LO:TX:t=P:problem=kreska pseudotaktowa	!	!	!
4D/	-do-	4F/	o-	4B-\	-do-	.	.
=34-	=34-	=34-	=34-	=34-	=34-	=34-	=34-
2C/	-ra-	1.G/	-mni-	2c\	-ra-	2.e-X\	-mus
4C/	-mus-	.	.	4c\	-mus	.	.
!LO:TX:t=P:problem=kreska pseudotaktowa	!	!	!	!LO:TX:t=P:problem=kreska pseudotaktowa	!	!	!
4BB-/	.	.	.	4d\	o-	4d\	o-
2.AA/	-omni-	.	.	2.A/	-mni-	2.c/	-mni-
!	!	!LO:TX:t=P:problem=kreska pseudotaktowa	!	!	!	!	!
.	.	2F/	-po-	.	.	.	.
!LO:TX:t=P:problem=kreska pseudotaktowa	!	!	!	!	!	!LO:TX:t=P:problem=kreska pseudotaktowa	!
4AA/	-po-	.	.	4A/	-po-	4c/	-po-
=35-	=35-	=35-	=35-	=35-	=35-	=35-	=35-
4GG/	-tens	4G/	-tens	2d\	-tens	2B-/	-tens
2G\	Ti-	2G/	Ti-	.	.	.	.
.	.	.	.	4B-\	Ti-	4d\	Ti-
!LO:TX:t=P:problem=kreska pseudotaktowa	!	!LO:TX:t=P:problem=kreska pseudotaktowa	!	!LO:TX:t=P:problem=kreska pseudotaktowa	!	!LO:TX:t=P:problem=kreska pseudotaktowa	!
4E-X\	-bi	4G/	-bi	4c\	-bi	4e-X\	-bi
2.F\	ca-	2.F/	ca-	4A/	ca-	4d\	ca-
.	.	.	.	2B-\	.	8c/L	.
.	.	.	.	.	.	8B-/J	.
.	.	.	.	.	.	4.c/	.
!LO:TX:t=P:problem=kreska pseudotaktowa	!	!	!	!LO:TX:t=P:problem=kreska pseudotaktowa	!	!	!
4F\	-ni-	4F/	-ni-	4A/	-ni-	.	.
*	*	*	*	*	*	*custos:d	*
!	!	!	!	!	!	!LO:TX:t=P:problem=kreska pseudotaktowa	!
.	.	.	.	.	.	8c/	-ni-
!	!	!	!	!	!	!LO:LB:g=original	!
=36-	=36-	=36-	=36-	=36-	=36-	=36-	=36-
*	*	*	*	*custos:B	*	*	*
2BB-/	-mus	2F/	-mus,	2B-\	-m(us)	4d\	-m(us)
.	.	.	.	.	.	2f\	Ti-
!	!	!	!	!LO:LB:g=original	!	!	!
!LO:TX:t=P:problem=kreska pseudotaktowa	!	!LO:TX:t=P::problem=kreska pseudotaktowa&colon;między nutą a kropką	!	!	!	!	!
2r	.	2.d\	Ti-	2.B-\	Ti-	.	.
!	!	!	!	!	!	!LO:TX:t=P:problem=kreska pseudotaktowa	!
.	.	.	.	.	.	4d\	-bi
!LO:TX:t=P:problem=kreska pseudotaktowa	!	!	!	!	!	!	!
0r	.	.	.	.	.	2.g\	laus
*	*	*custos:e	*	*	*	*	*
.	.	4B-\	-bi	4G/	-bi	.	.
!	!	!LO:LB:g=original	!	!LO:LB:g=original	!	!	!
!	!	!LO:TX:t=P:problem=kreska pseudotaktowa	!	!LO:TX:t=P:problem=kreska pseudotaktowa	!	!	!
.	.	2e-X\	Laus	2c\	Laus	.	.
.	.	.	.	.	.	8e-X\	ti-
.	.	.	.	.	.	8f\	-bi
=37-	=37-	=37-	=37-	=37-	=37-	=37-	=37-
.	.	4e-y\	ti-	4c\	Ti-	2.g\	glo-
.	.	4d\	-bi	4B-\	-bi	.	.
.	.	4.c\	glo-	4.A/	glo-	.	.
!	!	!	!	!	!	!LO:TX:t=P:problem=kreska pseudotaktowa	!
!	!	!	!	!	!	!LO:TX:t=P:problem=♯above	!
.	.	.	.	.	.	4f#X\	-ri-
!	!	!LO:TX:t=P:problem=kreska pseudotaktowa	!	!LO:TX:t=P:problem=kreska pseudotaktowa	!	!	!
.	.	8c\	-ri-	8A/	-ri-	.	.
4r	.	4B-\	-a	4G/	-a	4g\	-a
*	*	*	*	*	*ij	*	*ij
2G\	Ti-	2d\	Ti-	2B-\	Ti-	2g\	Ti-
!LO:TX:t=P:problem=kreska pseudotaktowa	!	!LO:TX:t=P:problem=kreska pseudotaktowa	!	!LO:TX:t=P:problem=kreska pseudotaktowa	!	!	!
4E-X\	-bi	4e-X\	-bi	4B-\	-bi	4g\	-bi
=38-	=38-	=38-	=38-	=38-	=38-	=38-	=38-
2B-\	laus	2d\	laus	2B-\	Laus	2f\	laus
4BB-/	ti-	4d\	ti-	4B-\	Ti-	4f\	ti-
!LO:TX:t=P:problem=kreska pseudotaktowa	!	!LO:TX:t=P:problem=kreska pseudotaktowa	!	!LO:TX:t=P:problem=kreska pseudotaktowa	!	!LO:TX:t=P:problem=kreska pseudotaktowa	!
4C/	-bi	4c\	-bi	4G/	-bi	4e-X\	-bi
!	!	!LO:TX:t=P:problem= n above	!	!	!	!	!
!	!	!LO:N:acc=#	!	!	!	!	!
2.GG/	glo-	4Bn\	glo-	2.G/	glo-	4e-\	glo-
.	.	2c\	.	.	.	8d\L	.
.	.	.	.	.	.	8c\J	.
.	.	.	.	.	.	4.d\	.
!LO:TX:t=P:problem=kreska pseudotaktowa	!	!LO:TX:t=P:problem=kreska pseudotaktowa	!	!	!	!	!
4GG/	-ri-	4B\	-ri-	4G/	-ri-	.	.
.	.	.	.	.	.	8d\	-ri-
=39-	=39-	=39-	=39-	=39-	=39-	=39-	=39-
!	!	!	!	!	!	!LO:N:acc=#	!
2C/	-a	2c\	-a	2G/	-a	4en\	-a
*	*	*	*	*	*	*	*Xij
.	.	.	.	.	.	2g\	Ti-
!LO:TX:t=P:problem=kreska pseudotaktowa	!	!	!	!	!	!	!
*	*	*	*ij	*	*Xij	*	*
2r	.	4e\	Ti-	4c\	Ti-	.	.
!	!	!LO:TX:t=P:problem=kreska pseudotaktowa	!	!LO:TX:t=P:problem=kreska pseudotaktowa	!	!LO:TX:t=P:problem=kreska pseudotaktowa	!
.	.	4f\	-bi	4A\	-bi	4a\	-bi
!LO:TX:t=P:problem=kreska pseudotaktowa	!	!	!	!	!	!	!
00r	.	2e\	laus	2c\	Laus	2g\	Laus
.	.	4e\	ti-	4c\	Ti-	4g\	ti-
!	!	!LO:TX:t=P:problem=kreska pseudotaktowa	!	!LO:TX:t=P:problem=kreska pseudotaktowa	!	!LO:TX:t=P:problem=kreska pseudotaktowa	!
.	.	4d\	-bi	4d\	-bi	4f\	-bi
=40-	=40-	=40-	=40-	=40-	=40-	=40-	=40-
!	!	!LO:TX:t=P:problem=♯above	!	!	!	!	!
.	.	4c#X\	glo-	2.A/	glo-	4f\	glo-
.	.	2d\	.	.	.	8e\L	.
.	.	.	.	.	.	8d\J	.
.	.	.	.	.	.	4.e\	.
!	!	!LO:TX:t=P:problem=kreska pseudotaktowa	!	!	!	!	!
!	!	!LO:TX:t=P:problem=♯above	!	!LO:TX:t=P:problem=kreska pseudotaktowa	!	!	!
.	.	4c#X\	-ri-	4A/	-ri-	.	.
.	.	.	.	.	.	8e\	-ri-
.	.	4d,\	-a	4D,/	-a	2f#X\	-a
*	*	*	*Xij	*	*	*	*
.	.	4d\	per	4D/	Per	.	.
!	!	!	!	!	!	!LO:TX:t=P:problem=kreska pseudotaktowa	!
.	.	4B-\	in-	4G/	in-	2r	.
!	!	!LO:TX:t=P:problem=kreska pseudotaktowa	!	!	!	!	!
!	!	!LO:TX:t=P:♯below:problem	!	!LO:TX:t=P:problem=kreska pseudotaktowa	!	!	!
.	.	4F#X/	-fi-	4A/	-fi-	.	.
=41-	=41-	=41-	=41-	=41-	=41-	=41-	=41-
.	.	4G/	-ni-	4B-\	-ni-	2r	.
.	.	4A\	-ta	4F#X/	-ta	.	.
.	.	4.B-\	Sae-	4.G/	Sae-	4r	.
!	!	!	!	!	!	!LO:TX:t=P:problem=kreska pseudotaktowa	!
.	.	.	.	.	.	4g\	Per
!	!	!LO:TX:t=P:problem=kreska pseudotaktowa	!	!LO:TX:t=P:problem=kreska pseudotaktowa	!	!	!
.	.	8B-\	-cu-	8G/	-cu-	.	.
4r	.	2.A,/	-la	2D/	-la	4.f\	in-
4A\	Per	.	.	.	.	.	.
*	*	*	*	*	*	*custos:d	*
.	.	.	.	.	.	8A/	-fi-
!	!	!	!	!	!	!LO:LB:g=original	!
!	!	!	!	!LO:TX:t=P:problem=kreska pseudotaktowa	!	!	!
4F\	in-	.	.	2r	.	4d\	-ni-
*custos:D	*	*custos:A	*	*	*	*	*
!LO:TX:t=P:problem=kreska pseudotaktowa	!	!	!	!	!	!	!
!	!	!	!	!	!	!LO:TX:t=P:problem=kreska pseudotaktowa	!
4C#X/	-fi-	4A/	per	.	.	4e\	-ta
!LO:LB:g=original	!	!LO:LB:g=original	!	!	!	!	!
=42-	=42-	=42-	=42-	=42-	=42-	=42-	=42-
*	*	*	*	*custos:d	*	*	*
!	!	!	!	!LO:TX:t=P:problem=kreska pseudotaktowa	!	!	!
4D\	-ni-	4A/	in-	1r	.	4f\	Sae-
4E\	-ta	4G/	-fi-	.	.	4c#X/	.
!LO:TX:t=P:problem=♯above	!	!	!	!	!	!	!
8F#X\L	Sae-	4A/	-ni-	.	.	2.d\	.
8D\J	.	.	.	.	.	.	.
!	!	!LO:TX:t=P:problem=kreska pseudotaktowa	!	!	!	!	!
2G\	.	4B-\	-ta	.	.	.	.
!	!	!	!	!LO:PB:g=original	!	!	!
.	.	4.A/	Sae-	4r	.	.	.
4F#\	-cu-	.	.	4d\	Per	4d\	-cu-
.	.	8A/	-cu-	.	.	.	.
!	!	!	!	!	!	!LO:TX:t=P:problem=kreska pseudotaktowa	!
4G\	-la	4G/	-la	4B-\	in-	2d\	-la
!LO:TX:t=P:problem=kreska pseudotaktowa	!	!LO:TX:t=P:problem=kreska pseudotaktowa	!	!LO:TX:t=P:problem=kreska pseudotaktowa	!	!	!
*	*ij	*	*	*	*	*	*
4D/	Sae-	4A/	Sae-	4F#X/	-fi-	.	.
=43-	=43-	=43-	=43-	=43-	=43-	=43-	=43-
4BB-/	.	4B-\	-cu-	4G/	-ni-	4r	.
!	!	!	!	!	!	!LO:SIC:v:s=4a	!
*	*	*	*	*	*	*	*ij
4FF#X/	.	4d\	-lo-	4A/	-ta	4g\	Sae-
4.GG/	.	8B-\L	.	4.B-\	Sae-	4.d\	-cu-
.	.	8A\J	.	.	.	.	.
.	.	4G/	.	.	.	.	.
!LO:TX:t=P:problem=kreska pseudotaktowa	!	!	!	!LO:TX:t=P:problem=kreska pseudotaktowa	!	!LO:TX:t=P:problem=kreska pseudotaktowa	!
8GG/	-cu-	.	.	8B-\	-cu-	8e\	.
!	!	!LO:TX:t=P:problem=kreska pseudotaktowa	!	!	!	!	!
2.D/	-la	1A\	-rum	2d\	-la	2f\	.
!	!	!	!	!	!	!LO:TX:t=P:problem=kreska pseudotaktowa	!
.	.	.	.	4.e\	Sae-	2e\	-la
*	*Xij	*	*	*	*	*	*Xij
!LO:TX:t=P:problem=kreska pseudotaktowa	!	!	!	!	!	!	!
4C/	Sae-	.	.	.	.	.	.
!	!	!	!	!LO:TX:t=P:problem=kreska pseudotaktowa	!	!	!
.	.	.	.	8e\	-cu-	.	.
=44-	=44-	=44-	=44-	=44-	=44-	=44-	=44-
4.BB-/	-cu-	2d\	A-	4d\	-lo-	4.f\	Sae-
.	.	.	.	4D/	-rum	.	.
8AA/	.	.	.	.	.	8f\	-cu-
*	*	*	*	*	*ij	*	*
4GG/	-lo-	4B-\	.	4G/	Sae-	4g\	-lo-
!	!	!LO:TX:t=P:problem=kreska pseudotaktowa	!	!	!	!	!
!LO:TX:t=P:problem=kreska pseudotaktowa	!	!LO:TX:t=P:problem=♯above	!	!LO:TX:t=P:problem=kreska pseudotaktowa	!	!LO:TX:t=P:problem=kreska pseudotaktowa	!
4D/	.	4F#X/	.	4A/	.	4d\	.
2.GG/	-rum	4G/	.	4B-\	-cu-	2.d\	-rum
.	.	4A/	.	4A/	.	.	.
.	.	4.B-\	.	4.G/	.	.	.
4GG/	A-	.	.	.	.	4d\	A-
.	.	8B-\	.	8G/	-lo-	.	.
=45-	=45-	=45-	=45-	=45-	=45-	=45-	=45-
!LO:TX:t=P:problem=druga fermata na dole	!	!	!	!	!	!	!
00D\;;	-men.	00A\	-men.	00F#X/	-rum	00d\	-men.
==	==	==	==	==	==	==	==
*-	*-	*-	*-	*-	*-	*-	*-
!!!system-decoration: [(s1,s2,s3,s4)]
!!!EED: Leszek Kubiak
!!!EST: 2021-03-18
!!!ENC: Andrzej Borzym
!!!END: 2021-03-03
